X:145
T:Lady Coventry's Delight
M:6/8
L:1/8
B:Thompson's Compleat Collection of 200 Favourite Country Dances, vol. 1 (London, 1757)
Z:Transcribed and edited by Flynn Titford-Mock, 2007
Z:abc's:AK/Fiddler's Companion
K:G
B2c|dBG gec|d2B A2B|cBA edc|c2B B2c|dBG gec|d2B b2g|fed A2^c|d3:|
|:d2e|fed dcB|c2A c2d|edc cBA|B2G B2c|dBG gec|dBG e/f/ge|dBG A/B/cA|G3:|

